X:19
T:Beethoven’s Waltz. CJF.019
R:Waltz
C:Beethoven ?
S:C.J.Fox MS, 1829/33, Beverley,E.Yorks.
N:In the MS last section, bar 3 is ^(c3A/ce) and
N:bar 11 is d3B/^cc.
B:Kidson Coll.Mitchell Lib.M1805
O:England
A:East Yorkshire
Z:vmp.P J Headford 2000 & 2008
M:3/8
L:1/16
Q:1/8=120
K:G
B”p”|\
d3ed2|.d2.d2.d2|(db)(ba)(ag)|(gf)(fe)(ed)|!
c3dc2|.c2.c2.c2|(ca)(ag)(gf)|(fe)(ed)(dc)|!
B2B4|(Bc^cd^d)e|A2A4|(Ae^d^cBA)|!
B2B4|(Bc^cd^de)|A2A4|(AedcBA)|!
.G2.A2.B2|.c2.A2.d2|” cresc:”G>GA>AB>B|c>cA>Ad>d|!
((3zGg)((3zAa)((3zBb)|\
((3zcc’)((3zAa)((3zdd’)|”8va——“GgfgdB|g4|!
“p”A2|A3BA2|(Afgfed)|(d2^c2c2)|(^c3Acd)|!
gfed^cB|A^GA^AB^G|(G2F2).F2|F4A2|!
(d4^d2)|(efga)b2|d4e2|d3″ D. Capo”B^cc|]

